X: 145
T: 145. Warum betr\"ubst du dich, mein Herz
N: Derived from chor145.krn
C: Johann Sebastian Bach
%%abc-version 2.0
%%abcx-abcm2ps-target-version 5.9.1 (29 Sep 2008)
%%abc-creator hum2abc beta
%%abcx-conversion-date 2019/03/11 17:28:18
%%abc-edited-by Craig Stuart Sapp
%%humdrum-veritas 350138870
%%humdrum-veritas-data 3056491201
%%
%%barnumbers 0
L: 1/8
M: C
%%staves [1 2 3 4]
V: 1 clef=treble
V: 2 clef=treble
V: 3 clef=treble-8
V: 4 clef=bass
K: C
[V:1] A2 [I:setbarnb 1]| 
[V:2] E2 | 
[V:3] c2 | 
[V:4] A,,2 | 
[V:1] ABc2B2e2 | 
[V:2] E2E2E3^F | 
[V:3] cBA2^G2A2 | 
[V:4] A,^G,A,2E,D,C,2 | 
[V:1] d2c2!fermata!B2cB | 
[V:2] ^G2A2!fermata!G2AG | 
[V:3] B2cd!fermata!e2ed | 
[V:4] B,,2A,,2!fermata!E,2A,,2 | 
[V:1] A2e2d2e2 | 
[V:2] A2A2A2=G2- | 
[V:3] cB^c2dc _BA | 
[V:4] A,2-A,G, F,E,D,^C, | 
[V:1] A=B^c2!fermata!d2=c2 | 
[V:2] GFE2!fermata!F2E2 | 
[V:3] A2A2!fermata!A2A2 | 
[V:4] D,2A,,2!fermata!D,,2A,,2 | 
[V:1] B2e2edc2 | 
[V:2] E2EB cB2A | 
[V:3] ^G2A^G ABcd | 
[V:4] E,D,C,E, ^F,^G,A,2 | 
[V:1] !fermata!B6AB | 
[V:2] !fermata!^G6E2 | 
[V:3] !fermata!e6cB | 
[V:4] !fermata!E,6A,,2 | 
[V:1] c2c2d2d2 | 
[V:2] E2F=G AFG2 | 
[V:3] A2A2AB/c/B2 | 
[V:4] A,=G,F,E, F,D,G,F, | 
[V:1] e2ed!fermata!c2e2 | 
[V:2] G2G2!fermata!A2GA | 
[V:3] c2c2!fermata!c2c2 | 
[V:4] E,D,C,2!fermata!F,2C,B,, | 
[V:1] d2c2B2AB | 
[V:2] B2A2^G2A2 | 
[V:3] fee2d2cf | 
[V:4] A,,^G,,A,,=G,, F,,E,,F,,D,, | 
[V:1] c2B2!fermata!A2 |]  
[V:2] A^F^G2!fermata!E2 |]  
[V:3] eA Bd!fermata!^c2 |]  
[V:4] E,,4!fermata!A,,2 |]  



